X:1
T:In Heavenly Pastures
T:In Heavenly Pastures
T:George Frederick Root
T:Mary Ann Whitaker, 1891
T:Public Domain Courtesy of the Cyber Hymnal™
T:Public Domain Courtesy of the Cyber Hymnal™
C:George Frederick Root
Z:Public Domain
Z:Courtesy of the Cyber Hymnal™
%%score ( 1 2 ) ( 3 4 )
L:1/8
Q:1/4=94
M:4/4
K:Ab
V:1 treble 
V:2 treble 
V:3 bass 
V:4 bass 
V:1
 [Ec]>[Fd] | [Ec]>[DB] [DE]>[Dc] [DB]2 [DB]>[Ec] | [DB]>[CA] C>[DF] [CE]2 [CA]>[CB] | %3
w: 1.~In the|heav’n- ly pas- tures fair, ’Neath the|ten- der Shep- herd’s care, Let us|
w: 2.~Far from|all the noise and strife That dis-|turb our dai- ly life, Let us|
w: 3.~O how|good and true and kind, Seek- ing|His stray sheep to find, If they|
 [DA]>[DG] [DG]>[DA] [DB]>[D=A] [DB]>[D=B] | c6 [Ec]>[Fd] | [Ec]>[DB] [DE]>[Dc] [DB]2 [DB]>[Ec] | %6
w: rest be- side the liv- ing streams to-|day; Calm- ly|there in peace re- cline, Drink- ing|
w: pause a- while in si- lence and a-|dore; Then the|sound of His dear voice Will our|
w: wan- der in- to dan- ger from His|side; Ev- er|close- ly may we tread Where His|
 [DB]>[CA] C>[DF] [CE]2 [CA]>[CB] | [DA]>[DG] [DG]>[DA] [DB]>[D=A] [Ec]>[DB] | [CA]6 z2 || %9
w: in the truth di- vine, As His|lov- ing call we now with joy o-|bey.|
w: wait- ing souls re- joice, As He|nam- eth us His own for- ev- er-|more.|
w: ho- ly feet have led, So at|last with Him in Heav’n we may a-|bide.|
"^Refrain" [Ge]2 [Ge]2 [Ge]>[Gd] [EB]>[EG] | [EA]4 [Ec]4 | [=DB]2 [DB]2 [DB]>[DA] [B,F]>[B,D] | %12
w: |||
w: Glor- ious stream of life e-|ter- nal,|Beau- teous fields of liv- ing|
w: |||
 E6 !fermata![Ec]>[Fd] | [Ec]>[DB] [DE]>[Dc] [DB]2 [DB]>[Ec] | [DB]>[CA] C>[DF] [CE]2 [CA]>[CB] | %15
w: |||
w: green, Tho’ re-|vealed with- in the word Of our|shep- herd and our Lord, By the|
w: |||
 [DA]>[DG] [DG]>[DA] [DB]>[C=A] [Ec]>[DB] | A6 |] %17
w: ||
w: pure in heart a- lone can they be|seen.|
w: ||
V:2
 x2 | x8 | x2 C3/2 x9/2 | x8 | (C4 E2) x2 | x8 | x2 C3/2 x9/2 | x8 | x8 || x8 | x8 | x8 | %12
 (B,2 C>C D2) x2 | x8 | x2 C3/2 x9/2 | x8 | (C2 D>D C2) |] %17
V:3
 A,>A, | [E,G,]>[E,G,] [E,G,]>[E,G,] [E,G,]2 [E,G,]>[E,G,] | %2
 [A,,A,]>[A,,A,] [A,,A,]>[A,,A,] [A,,A,]2 [A,,A,]>[A,,A,] | %3
 [E,B,]>[E,B,] [E,B,]>[E,A,] [E,G,]>[E,G,] [E,G,]>[E,G,] | [A,,A,]6 A,>A, | %5
 [E,G,]>[E,G,] [E,G,]>[E,G,] [E,G,]2 [E,G,]>[E,G,] | %6
 [A,,A,]>[A,,A,] [A,,A,]>[A,,A,] [A,,A,]2 [A,,A,]>[A,,A,] | %7
 [E,B,]>[E,B,] [E,B,]>[E,A,] [E,G,]>[E,G,] [E,G,]>[E,G,] | A,6 z2 || %9
 [E,B,]2 [E,B,]2 [E,B,]>[E,B,] [E,D]>[E,D] | [A,,C]4 [A,,A,]4 | %11
 [B,,F,]2 [B,,F,]2 [B,,F,]>[B,,F,] [B,,A,]>[B,,A,] | (G,2 A,>A, B,2) A,>A, | %13
 [E,G,]>[E,G,] [E,G,]>[E,G,] [E,G,]2 [E,G,]>[E,G,] | %14
 [A,,A,]>[A,,A,] [A,,A,]>[A,,A,] [A,,A,]2 [A,,A,]>[A,,A,] | %15
 [E,B,]>[E,B,] [E,B,]>[E,A,] [E,G,]>[E,G,] [E,G,]>[E,G,] | (A,2 F,>F, !fermata!E,2) |] %17
V:4
 A,>A, | x8 | x8 | x8 | x6 A,>A, | x8 | x8 | x8 | (A,,>A,,C,>E, A,2) x2 || x8 | x8 | x8 | %12
 E,6 A,>A, | x8 | x8 | x8 | A,,6 |] %17

